fs/shield_lock_28_filled.svg

<svg viewBox="0 0 28 28" fill="none" xmlns="http://www.w3.org/2000/svg" height="1em" width="1em">
  <path d="M13.5596 2.14208C13.8218 1.95264 14.1759 1.95264 14.4381 2.14208C15.0807 2.60639 16.526 3.45355 18.335 4.18311C20.1454 4.9133 22.2575 5.5 24.2476 5.5C24.6618 5.5 24.9976 5.83579 24.9976 6.25V14.002C24.9976 14.3239 24.9784 14.6434 24.9414 14.96C24.2443 13.7865 22.964 13 21.5 13C19.2909 13 17.5 14.7909 17.5 17V17.0415C16.0811 17.2795 15 18.5135 15 20V25C15 25.2569 15.0323 25.5063 15.0931 25.7443C14.7634 25.8434 14.4405 25.9211 14.1275 25.9756L13.9988 25.998L13.8701 25.9756C11.6645 25.5914 8.97042 24.0589 6.83716 21.9516C4.70264 19.8431 3 17.0293 3 14.002V6.25C3 5.83579 3.33579 5.5 3.75 5.5C5.74138 5.5 7.85341 4.91328 9.6635 4.18313C11.4721 3.45359 12.9169 2.60645 13.5596 2.14208ZM18.5 18V17C18.5 15.3431 19.8431 14 21.5 14C23.1569 14 24.5 15.3431 24.5 17V18H25C26.1046 18 27 18.8954 27 20V25C27 26.1046 26.1046 27 25 27H18C16.8954 27 16 26.1046 16 25V20C16 18.8954 16.8954 18 18 18H18.5ZM20 17V18H23V17C23 16.1716 22.3284 15.5 21.5 15.5C20.6716 15.5 20 16.1716 20 17ZM23 22.5C23 21.6716 22.3284 21 21.5 21C20.6716 21 20 21.6716 20 22.5C20 23.3284 20.6716 24 21.5 24C22.3284 24 23 23.3284 23 22.5Z" fill="#212121"/>
</svg>

<svg viewBox="0 0 28 28" fill="none" xmlns="http://www.w3.org/2000/svg" height="1em" width="1em">
  <path d="M13.56 2.142a.75.75 0 0 1 .878 0c.643.464 2.088 1.312 3.897 2.041 1.81.73 3.922 1.317 5.913 1.317a.75.75 0 0 1 .75.75v7.752c0 .322-.02.641-.057.958A4 4 0 0 0 17.5 17v.041A3 3 0 0 0 15 20v5c0 .257.032.506.093.744-.33.1-.652.177-.966.232l-.128.022-.129-.022c-2.205-.385-4.9-1.917-7.033-4.024C4.703 19.843 3 17.029 3 14.002V6.25a.75.75 0 0 1 .75-.75c1.991 0 4.103-.587 5.914-1.317 1.808-.73 3.253-1.577 3.896-2.04ZM18.5 18v-1a3 3 0 1 1 6 0v1h.5a2 2 0 0 1 2 2v5a2 2 0 0 1-2 2h-7a2 2 0 0 1-2-2v-5a2 2 0 0 1 2-2h.5Zm1.5-1v1h3v-1a1.5 1.5 0 0 0-3 0Zm3 5.5a1.5 1.5 0 1 0-3 0 1.5 1.5 0 0 0 3 0Z" fill="#212121"/>
</svg>
